X: 1
T: Oddville Cupola
C: Claude Ginsburg
R: reel
Z: 2015 John Chambers <jc:trillian.mit.edu>
N: Chords partly by John Chambers, after listening to various recordings.
N: (Some of the recordings use chords only rarely, or not at all.)
B: Portland Collection v.3 p.151
M: C|
L: 1/8
K: Dm
|:\
"Dm"A4 FGA2 | "C"G6 E2 | "Dm"F2D2 D2EF | "C"G2E2 E2G2 |\
"Dm"A4 FGA2 | "C"G6 E2 | "Bb"F2D2 "C"G2E2 | "Dm"F2D2 D4 :|
|:\
"C"G4 EFG2 | "Bb"F6 E2 | F2D2 D2EF | "C"G2E2 E2F2 |\
"C"G4 EFG2 | "Bb"F6 E2 | F2D2 "C"G2E2 | "Dm"F2D2 D4 :|[K:=B]
|:\
"G"d3c B2c2- | "Am"c2A2 "G"B4 | B2G2 "Am"c2A2 | B2G2 "Am"ABc2 |\
"G"d3c B2c2- | "Am"c2A2 "G"B4 | B2G2 "Am"c2BA | "G"G4 G4 :|[K:F]
|:\
"F(Dm)"A3G F2G2- | "C"G2E2 "Bb(F)"F4 | "Bb"F2D2 D2EF | "C"G2E2 E2G2 |\
"F(Dm)"A3G F2G2- | "C"G2E2 "Bb(F)"F4 | "Bb"F2D2 "C"G2E2 | "Dm"D4 D4 :|
